X:465
T: Beim Mondenschein (176), S. 386
N: T0353
O: Luxemburg
S: Singendes Volk, Esch-Alzette, 1937 posth.]
N: Trotten, hhh Nik. Dmer, mitgeteilt: hhh Heinrich Godefroid (Lehrer)
R: Tage-. Wchter-, Fenstergang-, Stndchenlieder, Liebeslied]
M: 2/4
L: 1/16
K: G
BB | ddd2A2c2 | B2A2G2
BB | A2AAE2G2 | F2E2D2z
D | GGG2A2A2 | B4
c4 | dBB2dcA2 | G4z2

@@@ Tune index: 8519
